img/icon_smart_watch.svg

<svg width="56" height="98" fill="none" xmlns="http://www.w3.org/2000/svg"><g clip-path="url(#clip0)" fill="#363636"><path d="M54.494 32.197h-1.515v-4.64c0-5.052-4.087-9.186-9.082-9.186H9.082C4.086 18.372 0 22.505 0 27.557v42.868c0 5.052 4.087 9.185 9.083 9.185h34.815c4.995 0 9.082-4.133 9.082-9.185V67.01h1.515a.764.764 0 00.757-.764V52.467a.765.765 0 00-.757-.766H52.98v-8.788h1.515c.832 0 1.514-.688 1.514-1.531v-7.654a1.529 1.529 0 00-1.515-1.531zm-20.412-3.109c2.926 0 5.299 2.398 5.299 5.358 0 2.96-2.373 5.358-5.299 5.358s-5.298-2.398-5.298-5.358c0-2.96 2.372-5.358 5.298-5.358zm-15.137 0c2.925 0 5.298 2.398 5.298 5.358 0 2.96-2.373 5.358-5.298 5.358-2.926 0-5.298-2.398-5.298-5.358 0-2.96 2.372-5.358 5.298-5.358zM5.297 49.397c0-2.959 2.371-5.358 5.298-5.358 2.926 0 5.298 2.399 5.298 5.358 0 2.959-2.373 5.358-5.298 5.358-2.927.001-5.298-2.399-5.298-5.358zm13.648 19.497c-2.926 0-5.298-2.398-5.298-5.358 0-2.96 2.372-5.358 5.298-5.358 2.925 0 5.298 2.398 5.298 5.358 0 2.96-2.373 5.358-5.298 5.358zm1.49-19.903c0-3.382 2.711-6.124 6.055-6.124s6.055 2.742 6.055 6.124c0 3.382-2.711 6.124-6.055 6.124-3.344-.001-6.055-2.742-6.055-6.124zm13.647 19.903c-2.926 0-5.298-2.398-5.298-5.358 0-2.96 2.372-5.358 5.298-5.358s5.299 2.398 5.299 5.358c0 2.96-2.373 5.358-5.299 5.358zm8.302-14.138c-2.927 0-5.298-2.399-5.298-5.358 0-2.959 2.371-5.358 5.298-5.358 2.926 0 5.298 2.399 5.298 5.358 0 2.958-2.372 5.358-5.298 5.358zM9.646 15.31h33.687c.843 0 1.432-.681 1.306-1.514L43.023 3.028l-.002-.002C42.771 1.362 41.189 0 39.506 0H13.474c-1.686 0-3.268 1.362-3.517 3.028L8.342 13.795c-.125.833.461 1.515 1.304 1.515zM43.333 82.671H9.646c-.843 0-1.429.683-1.304 1.516l1.615 10.767c.25 1.666 1.832 3.028 3.516 3.028h26.032c1.684 0 3.266-1.362 3.517-3.026v-.002l1.615-10.767c.128-.833-.461-1.516-1.304-1.516z"/></g><defs><clipPath id="clip0"><path fill="#fff" d="M0 0h56v98H0z"/></clipPath></defs></svg>

<svg width="56" height="98" viewBox="0 0 56 98" fill="none" xmlns="http://www.w3.org/2000/svg">
<g clip-path="url(#clip0)">
<path d="M54.494 32.197H52.979V27.557C52.979 22.505 48.892 18.371 43.897 18.371H9.082C4.086 18.372 0 22.505 0 27.557V70.425C0 75.477 4.087 79.61 9.083 79.61H43.898C48.893 79.61 52.98 75.477 52.98 70.425V67.01H54.495C54.91 67.01 55.252 66.666 55.252 66.246V52.467C55.252 52.046 54.91 51.701 54.495 51.701H52.98V42.913H54.495C55.327 42.913 56.009 42.225 56.009 41.382V33.728C56.008 32.886 55.326 32.197 54.494 32.197ZM34.082 29.088C37.008 29.088 39.381 31.486 39.381 34.446C39.381 37.406 37.008 39.804 34.082 39.804C31.156 39.804 28.784 37.406 28.784 34.446C28.784 31.486 31.156 29.088 34.082 29.088ZM18.945 29.088C21.87 29.088 24.243 31.486 24.243 34.446C24.243 37.406 21.87 39.804 18.945 39.804C16.019 39.804 13.647 37.406 13.647 34.446C13.647 31.486 16.019 29.088 18.945 29.088ZM5.297 49.397C5.297 46.438 7.668 44.039 10.595 44.039C13.521 44.039 15.893 46.438 15.893 49.397C15.893 52.356 13.52 54.755 10.595 54.755C7.668 54.756 5.297 52.356 5.297 49.397ZM18.945 68.894C16.019 68.894 13.647 66.496 13.647 63.536C13.647 60.576 16.019 58.178 18.945 58.178C21.87 58.178 24.243 60.576 24.243 63.536C24.243 66.496 21.87 68.894 18.945 68.894ZM20.435 48.991C20.435 45.609 23.146 42.867 26.49 42.867C29.834 42.867 32.545 45.609 32.545 48.991C32.545 52.373 29.834 55.115 26.49 55.115C23.146 55.114 20.435 52.373 20.435 48.991ZM34.082 68.894C31.156 68.894 28.784 66.496 28.784 63.536C28.784 60.576 31.156 58.178 34.082 58.178C37.008 58.178 39.381 60.576 39.381 63.536C39.381 66.496 37.008 68.894 34.082 68.894ZM42.384 54.756C39.457 54.756 37.086 52.357 37.086 49.398C37.086 46.439 39.457 44.04 42.384 44.04C45.31 44.04 47.682 46.439 47.682 49.398C47.682 52.356 45.31 54.756 42.384 54.756Z" fill="#363636"/>
<path d="M9.646 15.31H43.333C44.176 15.31 44.765 14.629 44.639 13.796L43.023 3.028C43.023 3.028 43.023 3.027 43.021 3.026C42.771 1.362 41.189 0 39.506 0H13.474C11.788 0 10.206 1.362 9.957 3.028L8.342 13.795C8.217 14.628 8.803 15.31 9.646 15.31Z" fill="#363636"/>
<path d="M43.333 82.671H9.646C8.803 82.671 8.217 83.354 8.342 84.187L9.957 94.954C10.207 96.62 11.789 97.982 13.473 97.982H39.505C41.189 97.982 42.771 96.62 43.022 94.956C43.022 94.955 43.022 94.955 43.022 94.954L44.637 84.187C44.765 83.354 44.176 82.671 43.333 82.671Z" fill="#363636"/>
</g>
<defs>
<clipPath id="clip0">
<rect width="56" height="98" fill="white"/>
</clipPath>
</defs>
</svg>
